static/img/partners/translated.svg

<svg height="40" viewBox="0 0 192 40" width="192" xmlns="http://www.w3.org/2000/svg"><path d="m60.4556937 28.0640641c-1.0035926.7379003-2.2265934 1.1188586-3.4731953 1.0818818-1.777376 0-3.138531-.5829829-3.9372253-1.8554554-.5005901-.7483484-.6946391-1.634034-.6946391-3.0466467v-7.6152152h-2.4523289v-2.3515515h2.443892v-3.9043043h3.0935342v3.9043043h4.4996862v2.3515515h-4.4996862v7.6432433c0 1.4658658.6946391 2.1581581 1.9686127 2.1581581.6666394.005617 1.3146242-.2192229 1.8336221-.6362362z"/><path d="m71.0805775 17.4974975c-.5082202-.2861303-1.0811925-.4385353-1.6648838-.4428428-1.8617452 0-3.5013183 1.606006-3.5013183 4.3723723v7.3937938h-3.0569743v-14.5437437h3.0710358v2.3515515c.9730571-1.5219219 2.415769-2.629029 4.1115882-2.629029.6815919-.0159679 1.3542782.1567291 1.943302.4988989z"/><path d="m85.4430132 29.0338338c-1.3611551 0-2.6126303-.6362362-2.9163591-2.1609609-1.1952291 1.7181181-3.1385311 2.273073-4.8624733 2.273073-3.0007282 0-5.0002762-1.634034-5.0002762-4.4844844 0-3.5987988 3.1947771-4.1537538 5.6949152-4.4284285 2.1120402-.2214214 3.6953673-.4148148 3.6953673-1.8274274s-1.6114501-1.8554554-2.9726052-1.8554554c-1.6323594.0187068-3.2207466.5297686-4.5559322 1.4658658l-1.2233521-2.2954955c1.7771366-1.1768832 3.8678583-1.7949506 6.0014563-1.7741742 3.4450722 0 5.8608412 1.3845846 5.8608412 4.8740741v6.6174174c0 .9417418.3065411 1.3285286 1.0293032 1.3285286.280943.0114152.5595047-.0555633.8043189-.1933934l.3346642 2.1049049c-.6002525.2416519-1.2425272.362624-1.8898682.3559559zm-3.3607031-7.9459459c-.8436911 1.051051-2.0839171 1.051051-3.6391211 1.3005005-1.5552041.2494494-2.6969994.6922923-2.6969994 2.2142142s1.1671061 2.160961 2.6688763 2.160961c1.9151789 0 3.655995-1.0258259 3.655995-3.4614615z"/><path d="m89.2705587 28.8124124v-14.5353353h3.0569743v2.1301301c1.1924168-1.577978 2.8123038-2.4636637 4.7809165-2.4636637 3.1947775 0 5.0283995 2.132933 5.0283995 5.401001v9.4678679h-3.0541622v-8.7755756c0-1.5527527-.5005901-3.2960961-2.8882361-3.2960961-2.1682862 0-3.8612931 1.521922-3.8612931 3.923924v8.1281281z"/><path d="m111.11091 29.1459459c-2.972605 0-5.391186-1.1379379-6.777652-3.268068l2.165474-1.5219219c1.11086 1.5499499 2.888236 2.2954955 4.780916 2.2954955 1.8055 0 3.028852-.6642643 3.028852-1.9367368 0-1.3285285-1.333032-1.606006-3.695368-1.9927928-3.062598-.5269269-5.503678-1.3845846-5.503678-4.3835836s2.694187-4.4032032 5.723038-4.4032032c2.944482 0 5.084645 1.2752753 6.279875 2.5477478l-1.946115 1.7713714c-1.122265-1.2064531-2.711775-1.8723842-4.361883-1.8274275-1.389278 0-2.72231.4988989-2.72231 1.6340341 0 1.2752752 1.555204 1.5499499 3.473195 1.8834834 3.110408.5605606 5.779285 1.3565566 5.779285 4.4284285 0 2.8616616-2.334213 4.7731731-6.223629 4.7731731z"/><path d="m120.054036 9.04424424h3.056975v15.97597596c0 1.1883884.50059 1.5219219 1.276786 1.5219219.436617.0074626.867745-.0977827 1.251475-.3055055l.582147 2.3263264c-.728211.3742385-1.540705.5556841-2.359523.5269269-1.361155 0-2.531074-.4148148-3.194777-1.3285285-.472467-.6922923-.613083-1.4966967-.613083-2.7691692z"/><path d="m140.673848 29.0338338c-1.361155 0-2.61263-.6362362-2.916359-2.1609609-1.195229 1.7181181-3.138531 2.273073-4.862473 2.273073-3.000728 0-5.000277-1.634034-5.000277-4.4844844 0-3.5987988 3.194778-4.1537538 5.694916-4.4284285 2.11204-.2214214 3.695367-.4148148 3.695367-1.8274274s-1.61145-1.8554554-2.972605-1.8554554c-1.63236.0187068-3.220747.5297686-4.555932 1.4658658l-1.223353-2.2954955c1.780795-1.1805684 3.876847-1.7997399 6.015518-1.776977 3.445073 0 5.860842 1.3845846 5.860842 4.8740741v6.6174174c0 .9417418.306541 1.3285286 1.029303 1.3285286.280943.0114152.559504-.0555633.804319-.1933934l.334664 2.1049049c-.604433.2444341-1.251676.3663946-1.90393.3587587zm-3.360703-7.9459459c-.843691 1.051051-2.083917 1.051051-3.639121 1.3005005-1.555204.2494494-2.694187.6922923-2.694187 2.2142142s1.164294 2.160961 2.666064 2.160961c1.915179 0 3.655995-1.0258259 3.655995-3.4614615z"/><path d="m153.368588 28.0640641c-1.003593.7379003-2.226594 1.1188586-3.473196 1.0818818-1.777376 0-3.138531-.5829829-3.937225-1.8554554-.50059-.7483484-.694639-1.634034-.694639-3.0466467v-7.6152152h-2.446704v-2.3515515h2.446704v-3.9043043h3.093534v3.9043043h4.499686v2.3515515h-4.527809v7.6432433c0 1.4658658.694639 2.1581581 1.968613 2.1581581.666639.005617 1.314624-.2192229 1.833622-.6362362z"/><path d="m168.841883 22.3071071h-11.111412c.137803 2.6570571 1.887056 4.1229229 4.471563 4.1229229 1.604319.0233456 3.141153-.6424078 4.218456-1.8274274l1.999548 1.9115115c-1.527081 1.606006-3.557565 2.6318318-6.333309 2.6318318-4.918719 0-7.641029-3.24004-7.641029-7.5311311s2.750433-7.6712713 7.334488-7.6712713c4.41813 0 7.112317 3.1307308 7.112317 7.3097098.002666.3519467-.014234.7037704-.050622 1.0538538zm-3.028851-2.217017c-.222172-2.4356356-1.915179-3.6828829-3.999096-3.6828829-2.306089 0-3.861293 1.5247247-4.030031 3.6828829z"/><path d="m182.231262 28.8124124v-2.1329329c-1.126213 1.5859544-2.969682 2.5103526-4.91872 2.4664664-4.136899 0-6.693283-3.2960961-6.693283-7.5871871 0-4.2910911 2.556384-7.6152153 6.693283-7.6152153 1.949645-.0495343 3.795241.8748787 4.91872 2.4636637v-7.36296296h3.093534v19.76816816zm-4.249391-12.1277277c-2.778556 0-4.111589 2.188989-4.111589 4.8740741 0 2.685085 1.333033 4.846046 4.111589 4.846046s4.249391-2.160961 4.249391-4.846046c0-2.6850851-1.473647-4.8740741-4.249391-4.8740741z"/><path d="m19.8066541 2.88928929c9.3377934 0 16.9075706 7.54420361 16.9075706 16.85045041 0 9.3062469-7.5697772 16.8504505-16.9075706 16.8504505s-16.90757061-7.5442036-16.90757061-16.8504505c.01084818-9.3017648 7.57427441-16.83963888 16.90757061-16.85045041zm0-2.76916917c-10.87234761 0-19.68612679 8.78400291-19.68612679 19.61961958 0 10.8356168 8.81377918 19.6196197 19.68612679 19.6196197 10.8723476 0 19.6861268-8.7840029 19.6861268-19.6196197 0-10.83561667-8.8137792-19.61961958-19.6861268-19.61961958z"/><path d="m24.5622599 27.9771772c-.9959902.7330364-2.2103216 1.1111095-3.4478845 1.0734735-1.7661268 0-3.118845-.5773774-3.9203515-1.8414415-.4949655-.7427427-.6890145-1.6228228-.6890145-3.027027v-7.5675676h-3.5406905v-2.3319319h3.5406905v-3.8790791h3.0625989v13.8206206c0 1.4574575.6890144 2.1441442 1.9686127 2.1441442.6611003.0037426 1.3034407-.2188823 1.8195605-.6306307z"/><path d="m23.1476711 15.4206206c-.0037441-.473518.1814148-.9291227.5147406-1.2665787s.787512-.5291185 1.2626354-.5328207h.0562461c.4751233.0037022.9293095.1953647 1.2626354.5328207.3333258.337456.5184846.7930607.5147406 1.2665787.0062364.9849624-.7890855 1.7888848-1.777376 1.7965966h-.0562461c-.9882906-.0077118-1.7836124-.8116342-1.777376-1.7965966z"/><ellipse cx="190.035405" cy="26.987788" rx="1.805499" ry="1.799399"/></svg>

<svg width="192px" height="40px" viewBox="0 0 192 40" version="1.1" xmlns="http://www.w3.org/2000/svg" xmlns:xlink="http://www.w3.org/1999/xlink">
  <g id="Instant" stroke="none" stroke-width="1" fill="none" fill-rule="evenodd">
      <g transform="translate(-120.000000, -32.000000)" fill="#000000" fill-rule="nonzero" id="Header">
          <g transform="translate(120.000000, 32.000000)">
              <g id="Logo">
                  <path d="M60.4556937,28.0640641 C59.4521011,28.8019644 58.2291003,29.1829227 56.9824984,29.1459459 C55.2051224,29.1459459 53.8439674,28.562963 53.0452731,27.2904905 C52.544683,26.5421421 52.350634,25.6564565 52.350634,24.2438438 L52.350634,16.6286286 L49.8983051,16.6286286 L49.8983051,14.2770771 L52.3421971,14.2770771 L52.3421971,10.3727728 L55.4357313,10.3727728 L55.4357313,14.2770771 L59.9354175,14.2770771 L59.9354175,16.6286286 L55.4357313,16.6286286 L55.4357313,24.2718719 C55.4357313,25.7377377 56.1303704,26.43003 57.404344,26.43003 C58.0709834,26.435647 58.7189682,26.2108071 59.2379661,25.7937938 L60.4556937,28.0640641 Z" id="Shape"></path>
                  <path d="M71.0805775,17.4974975 C70.5723573,17.2113672 69.999385,17.0589622 69.4156937,17.0546547 C67.5539485,17.0546547 65.9143754,18.6606607 65.9143754,21.427027 L65.9143754,28.8208208 L62.8574011,28.8208208 L62.8574011,14.2770771 L65.9284369,14.2770771 L65.9284369,16.6286286 C66.901494,15.1067067 68.3442059,13.9995996 70.0400251,13.9995996 C70.721617,13.9836317 71.3943033,14.1563287 71.9833271,14.4984985 L71.0805775,17.4974975 Z" id="Shape"></path>
                  <path d="M85.4430132,29.0338338 C84.0818581,29.0338338 82.8303829,28.3975976 82.5266541,26.8728729 C81.331425,28.590991 79.388123,29.1459459 77.6641808,29.1459459 C74.6634526,29.1459459 72.6639046,27.5119119 72.6639046,24.6614615 C72.6639046,21.0626627 75.8586817,20.5077077 78.3588198,20.233033 C80.47086,20.0116116 82.0541871,19.8182182 82.0541871,18.4056056 C82.0541871,16.992993 80.442737,16.5501502 79.0815819,16.5501502 C77.4492225,16.568857 75.8608353,17.0799188 74.5256497,18.016016 L73.3022976,15.7205205 C75.0794342,14.5436373 77.1701559,13.9255699 79.3037539,13.9463463 C82.7488261,13.9463463 85.1645951,15.3309309 85.1645951,18.8204204 L85.1645951,25.4378378 C85.1645951,26.3795796 85.4711362,26.7663664 86.1938983,26.7663664 C86.4748413,26.7777816 86.753403,26.7108031 86.9982172,26.572973 L87.3328814,28.6778779 C86.7326289,28.9195298 86.0903542,29.0405019 85.4430132,29.0338338 Z M82.0823101,21.0878879 C81.238619,22.1389389 79.998393,22.1389389 78.443189,22.3883884 C76.8879849,22.6378378 75.7461896,23.0806807 75.7461896,24.6026026 C75.7461896,26.1245245 76.9132957,26.7635636 78.4150659,26.7635636 C80.3302448,26.7635636 82.0710609,25.7377377 82.0710609,23.3021021 L82.0823101,21.0878879 Z" id="Shape"></path>
                  <path d="M89.2705587,28.8124124 L89.2705587,14.2770771 L92.327533,14.2770771 L92.327533,16.4072072 C93.5199498,14.8292292 95.1398368,13.9435435 97.1084495,13.9435435 C100.303227,13.9435435 102.136849,16.0764765 102.136849,19.3445445 L102.136849,28.8124124 L99.0826868,28.8124124 L99.0826868,20.0368368 C99.0826868,18.4840841 98.5820967,16.7407407 96.1944507,16.7407407 C94.0261645,16.7407407 92.3331576,18.2626627 92.3331576,20.6646647 L92.3331576,28.7927928 L89.2705587,28.8124124 Z" id="Shape"></path>
                  <path d="M111.11091,29.1459459 C108.138305,29.1459459 105.719724,28.008008 104.333258,25.8778779 L106.498732,24.355956 C107.609592,25.9059059 109.386968,26.6514515 111.279648,26.6514515 C113.085148,26.6514515 114.3085,25.9871872 114.3085,24.7147147 C114.3085,23.3861862 112.975468,23.1087087 110.613132,22.7219219 C107.550534,22.194995 105.109454,21.3373373 105.109454,18.3383383 C105.109454,15.3393393 107.803641,13.9351351 110.832492,13.9351351 C113.776974,13.9351351 115.917137,15.2104104 117.112367,16.4828829 L115.166252,18.2542543 C114.043987,17.0478012 112.454477,16.3818701 110.804369,16.4268268 C109.415091,16.4268268 108.082059,16.9257257 108.082059,18.0608609 C108.082059,19.3361361 109.637263,19.6108108 111.555254,19.9443443 C114.665662,20.5049049 117.334539,21.3009009 117.334539,24.3727728 C117.334539,27.2344344 115.000326,29.1459459 111.11091,29.1459459 Z" id="Shape"></path>
                  <path d="M120.054036,9.04424424 L123.111011,9.04424424 L123.111011,25.0202202 C123.111011,26.2086086 123.611601,26.5421421 124.387797,26.5421421 C124.824414,26.5496047 125.255542,26.4443594 125.639272,26.2366366 L126.221419,28.562963 C125.493208,28.9372015 124.680714,29.1186471 123.861896,29.0898899 C122.500741,29.0898899 121.330822,28.6750751 120.667119,27.7613614 C120.194652,27.0690691 120.054036,26.2646647 120.054036,24.9921922 L120.054036,9.04424424 Z" id="Shape"></path>
                  <path d="M140.673848,29.0338338 C139.312693,29.0338338 138.061218,28.3975976 137.757489,26.8728729 C136.56226,28.590991 134.618958,29.1459459 132.895016,29.1459459 C129.894288,29.1459459 127.894739,27.5119119 127.894739,24.6614615 C127.894739,21.0626627 131.089517,20.5077077 133.589655,20.233033 C135.701695,20.0116116 137.285022,19.8182182 137.285022,18.4056056 C137.285022,16.992993 135.673572,16.5501502 134.312417,16.5501502 C132.680057,16.568857 131.09167,17.0799188 129.756485,18.016016 L128.533132,15.7205205 C130.313927,14.5399521 132.409979,13.9207806 134.54865,13.9435435 C137.993723,13.9435435 140.409492,15.3281281 140.409492,18.8176176 L140.409492,25.435035 C140.409492,26.3767768 140.716033,26.7635636 141.438795,26.7635636 C141.719738,26.7749788 141.998299,26.7080003 142.243114,26.5701702 L142.577778,28.6750751 C141.973345,28.9195092 141.326102,29.0414697 140.673848,29.0338338 Z M137.313145,21.0878879 C136.469454,22.1389389 135.229228,22.1389389 133.674024,22.3883884 C132.11882,22.6378378 130.979837,23.0806807 130.979837,24.6026026 C130.979837,26.1245245 132.144131,26.7635636 133.645901,26.7635636 C135.56108,26.7635636 137.301896,25.7377377 137.301896,23.3021021 L137.313145,21.0878879 Z" id="Shape"></path>
                  <path d="M153.368588,28.0640641 C152.364995,28.8019644 151.141994,29.1829227 149.895392,29.1459459 C148.118016,29.1459459 146.756861,28.562963 145.958167,27.2904905 C145.457577,26.5421421 145.263528,25.6564565 145.263528,24.2438438 L145.263528,16.6286286 L142.816824,16.6286286 L142.816824,14.2770771 L145.263528,14.2770771 L145.263528,10.3727728 L148.357062,10.3727728 L148.357062,14.2770771 L152.856748,14.2770771 L152.856748,16.6286286 L148.328939,16.6286286 L148.328939,24.2718719 C148.328939,25.7377377 149.023578,26.43003 150.297552,26.43003 C150.964191,26.435647 151.612176,26.2108071 152.131174,25.7937938 L153.368588,28.0640641 Z" id="Shape"></path>
                  <path d="M168.841883,22.3071071 L157.730471,22.3071071 C157.868274,24.9641642 159.617527,26.43003 162.202034,26.43003 C163.806353,26.4533756 165.343187,25.7876222 166.42049,24.6026026 L168.420038,26.5141141 C166.892957,28.1201201 164.862473,29.1459459 162.086729,29.1459459 C157.16801,29.1459459 154.4457,25.9059059 154.4457,21.6148148 C154.4457,17.3237237 157.196133,13.9435435 161.780188,13.9435435 C166.198318,13.9435435 168.892505,17.0742743 168.892505,21.2532533 C168.895171,21.6052 168.878271,21.9570237 168.841883,22.3071071 Z M165.813032,20.0900901 C165.59086,17.6544545 163.897853,16.4072072 161.813936,16.4072072 C159.507847,16.4072072 157.952643,17.9319319 157.783905,20.0900901 L165.813032,20.0900901 Z" id="Shape"></path>
                  <path d="M182.231262,28.8124124 L182.231262,26.6794795 C181.105049,28.2654339 179.26158,29.1898321 177.312542,29.1459459 C173.175643,29.1459459 170.619259,25.8498498 170.619259,21.5587588 C170.619259,17.2676677 173.175643,13.9435435 177.312542,13.9435435 C179.262187,13.8940092 181.107783,14.8184222 182.231262,16.4072072 L182.231262,9.04424424 L185.324796,9.04424424 L185.324796,28.8124124 L182.231262,28.8124124 Z M177.981871,16.6846847 C175.203315,16.6846847 173.870282,18.8736737 173.870282,21.5587588 C173.870282,24.2438438 175.203315,26.4048048 177.981871,26.4048048 C180.760427,26.4048048 182.231262,24.2438438 182.231262,21.5587588 C182.231262,18.8736737 180.757615,16.6846847 177.981871,16.6846847 Z" id="Shape"></path>
                  <path d="M19.8066541,2.88928929 C29.1444475,2.88928929 36.7142247,10.4334929 36.7142247,19.7397397 C36.7142247,29.0459866 29.1444475,36.5901902 19.8066541,36.5901902 C10.4688607,36.5901902 2.89908349,29.0459866 2.89908349,19.7397397 C2.90993167,10.4379749 10.4733579,2.90010082 19.8066541,2.88928929 Z M19.8066541,0.12012012 C8.93430649,0.12012012 0.120527307,8.90412303 0.120527307,19.7397397 C0.120527307,30.5753565 8.93430649,39.3593594 19.8066541,39.3593594 C30.6790017,39.3593594 39.4927809,30.5753565 39.4927809,19.7397397 C39.4927809,8.90412303 30.6790017,0.12012012 19.8066541,0.12012012 Z" id="Shape"></path>
                  <path d="M24.5622599,27.9771772 C23.5662697,28.7102136 22.3519383,29.0882867 21.1143754,29.0506507 C19.3482486,29.0506507 17.9955304,28.4732733 17.1940239,27.2092092 C16.6990584,26.4664665 16.5050094,25.5863864 16.5050094,24.1821822 L16.5050094,16.6146146 L12.9643189,16.6146146 L12.9643189,14.2826827 L16.5050094,14.2826827 L16.5050094,10.4036036 L19.5676083,10.4036036 L19.5676083,24.2242242 C19.5676083,25.6816817 20.2566227,26.3683684 21.536221,26.3683684 C22.1973213,26.372111 22.8396617,26.1494861 23.3557815,25.7377377 L24.5622599,27.9771772 Z" id="Shape"></path>
                  <path d="M23.1476711,15.4206206 C23.143927,14.9471026 23.3290859,14.4914979 23.6624117,14.1540419 C23.9957375,13.8165859 24.4499237,13.6249234 24.9250471,13.6212212 L24.9812932,13.6212212 C25.4564165,13.6249234 25.9106027,13.8165859 26.2439286,14.1540419 C26.5772544,14.4914979 26.7624132,14.9471026 26.7586692,15.4206206 C26.7649056,16.405583 25.9695837,17.2095054 24.9812932,17.2172172 L24.9250471,17.2172172 C23.9367565,17.2095054 23.1414347,16.405583 23.1476711,15.4206206 Z" id="Shape"></path>
                  <ellipse id="Oval" cx="190.035405" cy="26.9877878" rx="1.80549906" ry="1.7993994"></ellipse>
              </g>
          </g>
      </g>
  </g>
</svg>
